X: 1
T: Fairy Dance Var.I
C: Nathaniel Gow 1802
O: Hooper/Hunter/Skinner
R: reel
Z: 2019 John Chambers <jc:trillian.mit.edu>
B: BSFC Tune Book XXVI-3
B: BSFC Session Tune Book 2016 p.57
S: Anne Hooper
M: C|
L: 1/8
%%slurgraces yes
%%graceslurs yes
K: D
"A"|: "D"f2(fd) "Bm"{B}f2fd | "D"fafd "A7"cdeg | "D"fdfa "G"gfed | "A7"cABc defg :|
"B"[| "D"a2af "Bm"{B}b2ba | "Em"(gf)ge "A7"{A}a2ag | "D"f2(fd) "G"gfe(d | "A7"cA)Bc defg |
    | "D"a2af "Bm"{B}b2ba | "Em"(gf)ge "A7"{A}a2ag | "D"f2fd "G"(gf)ed | "A7"cABc "C"d2d2 |]


